X: 1
P: The Hundred Pipers
C: NE Fiddlers Rep, Kerr's #1; attrib. to Lady Nairne
C: arr. Terry Traub, 5-29-2005
M: 6/8
L: 1/8
R: Jig
K: A
|: B|"A"c2 E EFE|"D"F2 A A2 f|"A"e2 c cBA|"E"BcB BAB|"A"c2 E EFE|"D"F2 AA2 f|"A"e2 c "E"BcB|"A"A2 A2 :|
|: c|"A"e2 e ece|"D"f2 a agf|"A"e2 c cBA |"E"BcB Bcd|"A"e2 e ece |"D"f2 a agf|"A"e2 c "E"BcB|"A"A3 A2 :|
